Papirus/22x22/panel/mini-calendar.svg

<?xml version="1.0" encoding="UTF-8" standalone="no"?>
<svg xmlns:dc="http://purl.org/dc/elements/1.1/" xmlns:cc="http://creativecommons.org/ns#" xmlns:rdf="http://www.w3.org/1999/02/22-rdf-syntax-ns#" xmlns:svg="http://www.w3.org/2000/svg" xmlns="http://www.w3.org/2000/svg" version="1.1" width="22" height="22" style="enable-background:new" id="svg7384">
    <metadata id="metadata90">
        <rdf:RDF>
            <cc:Work rdf:about="">
                <dc:format>
                    image/svg+xml
                </dc:format>
                <dc:type rdf:resource="http://purl.org/dc/dcmitype/StillImage"/>
                <dc:title>
                    Paper Symbolic Icon Theme
                </dc:title>
            </cc:Work>
        </rdf:RDF>
    </metadata>
    <title id="title8473">
        Paper Symbolic Icon Theme
    </title>
    <defs id="defs7386">
        <filter style="color-interpolation-filters:sRGB" id="filter7554">
            <feBlend mode="darken" in2="BackgroundImage" id="feBlend7556"/>
        </filter>
    </defs>
    <path id="path6716" d="M 6.0039062 4 C 3.7539062 4 4.0039062 6 4.0039062 6 L 4.0039062 18 L 18.003906 18 L 18.003906 17 L 18.003906 6 C 18.003906 4 16.003906 4 16.003906 4 L 6.0039062 4 z M 6.0039062 6 L 16.003906 6 L 16.003906 14.3125 L 16.003906 15.15625 L 16.003906 16 L 6.0039062 16 L 6.0039062 15.15625 L 6.0039062 13.5 L 6.0039062 6 z M 7.0039062 7 L 7.0039062 9 L 9.0039062 9 L 9.0039062 7 L 7.0039062 7 z M 10.003906 7 L 10.003906 9 L 12.003906 9 L 12.003906 7 L 10.003906 7 z M 13.003906 7 L 13.003906 9 L 15.003906 9 L 15.003906 7 L 13.003906 7 z M 7.0039062 10 L 7.0039062 12 L 9.0039062 12 L 9.0039062 10 L 7.0039062 10 z M 10.003906 10 L 10.003906 12 L 12.003906 12 L 12.003906 10 L 10.003906 10 z M 13.003906 10 L 13.003906 12 L 15.003906 12 L 15.003906 10 L 13.003906 10 z M 7.0039062 13 L 7.0039062 15 L 9.0039062 15 L 9.0039062 13 L 7.0039062 13 z M 10.003906 13 L 10.003906 15 L 12.003906 15 L 12.003906 13 L 10.003906 13 z M 13.003906 13 L 13.003906 15 L 15.003906 15 L 15.003906 13 L 13.003906 13 z " style="color:#000000;text-indent:0;text-decoration:none;text-decoration-line:none;text-transform:none;block-progression:tb;opacity:1;fill:#ffffff;fill-opacity:1;enable-background:new"/>
</svg>

<?xml version="1.0" encoding="UTF-8" standalone="no"?>
<svg id="svg7384" xmlns:rdf="http://www.w3.org/1999/02/22-rdf-syntax-ns#" style="enable-background:new" xmlns="http://www.w3.org/2000/svg" height="22" width="22" version="1.1" xmlns:cc="http://creativecommons.org/ns#" xmlns:dc="http://purl.org/dc/elements/1.1/">
 <metadata id="metadata90">
  <rdf:RDF>
   <cc:Work rdf:about="">
    <dc:format>image/svg+xml</dc:format>
    <dc:type rdf:resource="http://purl.org/dc/dcmitype/StillImage"/>
   </cc:Work>
  </rdf:RDF>
 </metadata>
 <path id="path6716" style="color:#000000;text-indent:0;block-progression:tb;text-decoration-line:none;enable-background:new;text-transform:none" d="m6.0039 4c-2.25 0-2 2-2 2v12h14v-1-11c0-2-2-2-2-2h-10zm0 2h10v8.312 0.844 0.844h-10l-0.0001-0.844v-1.656-7.5zm1 1v2h2v-2h-2zm3.0001 0v2h2v-2h-2zm3 0v2h2v-2h-2zm-6.0001 3v2h2v-2h-2zm3.0001 0v2h2v-2h-2zm3 0v2h2v-2h-2zm-6.0001 3v2h2v-2h-2zm3.0001 0v2h2v-2h-2zm3 0v2h2v-2h-2z" fill="#fff"/>
</svg>
